; generated by Slic3r 1.1.7 on 2015-03-28 at 18:54:08

; perimeters extrusion width = 0.40mm
; infill extrusion width = 0.42mm
; solid infill extrusion width = 0.42mm
; top infill extrusion width = 0.42mm

G21 ; set units to millimeters
M127
M109 S40 ; wait for bed temperature to be reached
M104 S210 T0 ; set temperature
G28 ; home all axes
G1 Z15 F5000 ; move Z to 15mm height
M280 P0 S5 ; deploy servo
G29 ; perform auto level routine
M280 P0 S120 ; retract servo
G1 X0 Y0 Z5 F5000 ; Move to center
G90 ; use absolute coordinates
M73 P0
G1 F1800.000 E-4.00000
G1 Z1.400 F6000.000
G1 X11.714 Y0.000 F6000.000
G1 Z0.400 F6000.000
G1 E0.00000 F1800.000
G1 X11.714 Y5.000 E0.59383 F600.000
G1 X11.317 Y7.275 E0.86805
G1 X10.173 Y9.280 E1.14228
G1 X8.417 Y10.780 E1.41650
G1 X6.257 Y11.595 E1.69073
G1 X5.000 Y11.714 E1.84069
G1 X-5.000 Y11.714 E3.02834
G1 X-7.275 Y11.317 E3.30257
G1 X-9.280 Y10.173 E3.57679
G1 X-10.780 Y8.417 E3.85102
G1 X-11.595 Y6.257 E4.12524
G1 X-11.714 Y5.000 E4.27521
G1 X-11.714 Y-5.000 E5.46286
G1 X-11.317 Y-7.275 E5.73709
G1 X-10.173 Y-9.280 E6.01131
G1 X-8.417 Y-10.780 E6.28554
G1 X-6.257 Y-11.595 E6.55976
G1 X-5.000 Y-11.714 E6.70973
G1 X5.000 Y-11.714 E7.89738
G1 X7.275 Y-11.317 E8.17160
G1 X9.280 Y-10.173 E8.44583 F600.000
G1 X10.780 Y-8.417 E8.72005
G1 X11.595 Y-6.257 E8.99428
G1 X11.714 Y-5.000 E9.14424
G1 X11.714 Y-0.060 E9.73094
G1 F1800.000 E5.73094
G1 Z1.400 F6000.000
G1 X3.886 Y-3.886 F6000.000
G1 Z0.400 F6000.000
G1 E9.73094 F1800.000
G1 X3.886 Y3.886 E10.65395 F600.000
G1 X-3.886 Y3.886 E11.57695
G1 X-3.886 Y-3.886 E12.49996
G1 X3.826 Y-3.886 E13.41584
G1 X4.600 Y-4.600 F6000.000
G1 X4.600 Y4.600 E14.50848 F600.000
G1 X-4.600 Y4.600 E15.60112
G1 X-4.600 Y-4.600 E16.69376
G1 X4.540 Y-4.600 E17.77927
G1 X4.400 Y-4.254 F6000.000
G1 X3.348 Y-3.388 F6000.000
G1 X3.388 Y-3.348 E17.78599 F600.000
G1 X3.388 Y-2.312 E17.90907
G1 X2.312 Y-3.388 E18.08985
G1 X1.275 Y-3.388 E18.21293
G1 X3.388 Y-1.275 E18.56777
G1 X3.388 Y-0.239 E18.69085
G1 X0.239 Y-3.388 E19.21976
G1 X-0.797 Y-3.388 E19.34284
G1 X3.388 Y0.797 E20.04581
G1 X3.388 Y1.834 E20.16889
G1 X-1.834 Y-3.388 E21.04592
G1 X-2.870 Y-3.388 E21.16900
G1 X3.388 Y2.870 E22.22010
G1 X2.870 Y3.388 E22.30713
G1 X-3.388 Y-2.870 E23.35822
G1 X-3.388 Y-1.834 E23.48130
G1 X1.834 Y3.388 E24.35833
G1 X0.797 Y3.388 E24.48141
G1 X-3.388 Y-0.797 E25.18438
G1 X-3.388 Y0.239 E25.30746
G1 X-0.239 Y3.388 E25.83637
G1 X-1.275 Y3.388 E25.95945
G1 X-3.388 Y1.275 E26.31429
G1 X-3.388 Y2.312 E26.43737
G1 X-2.312 Y3.388 E26.61815
G1 X-3.348 Y3.388 E26.74123
G1 X-3.388 Y3.348 E26.74795
M126
M73 P3
G1 F1800.000 E22.74795
G1 Z1.720 F6000.000
G1 X4.400 Y-4.400 F6000.000
G1 Z0.720 F6000.000
G1 E26.74795 F1800.000
G1 X4.400 Y4.400 E27.21625 F600.000
G1 X-4.400 Y4.400 E27.68456
G1 X-4.400 Y-4.400 E28.15286
G1 X4.340 Y-4.400 E28.61797
G1 X4.800 Y-4.800 F6000.000
G1 X4.800 Y4.800 E29.12884 F600.000
G1 X-4.800 Y4.800 E29.63972
G1 X-4.800 Y-4.800 E30.15060
G1 X4.740 Y-4.800 E30.65828
G1 X4.600 Y-4.454 F6000.000
G1 X4.126 Y4.086 F6000.000
G1 X4.086 Y4.126 E30.66141 F618.570
G1 X3.478 Y4.126 E30.69505
G1 X4.126 Y3.478 E30.74577
G1 X4.126 Y2.870 E30.77941
G1 X2.870 Y4.126 E30.87771
G1 X2.261 Y4.126 E30.91135
G1 X4.126 Y2.261 E31.05723
G1 X4.126 Y1.653 E31.09088
G1 X1.653 Y4.126 E31.28434
G1 X1.045 Y4.126 E31.31799
G1 X4.126 Y1.045 E31.55903
G1 X4.126 Y0.436 E31.59268
G1 X0.436 Y4.126 E31.88130
G1 X-0.172 Y4.126 E31.91495
G1 X4.126 Y-0.172 E32.25116
G1 X4.126 Y-0.780 E32.28481
G1 X-0.780 Y4.126 E32.66860
G1 X-1.389 Y4.126 E32.70225
G1 X4.126 Y-1.389 E33.13363
G1 X4.126 Y-1.997 E33.16727
G1 X-1.997 Y4.126 E33.64624
G1 X-2.606 Y4.126 E33.67988
G1 X4.126 Y-2.606 E34.20643
G1 X4.126 Y-3.214 E34.24007
G1 X-3.214 Y4.126 E34.81420
G1 X-3.822 Y4.126 E34.84785
G1 X4.126 Y-3.822 E35.46956
G1 X3.822 Y-4.126 E35.49335
G1 X-4.126 Y3.822 E36.11506
G1 X-4.126 Y3.214 E36.14871
G1 X3.214 Y-4.126 E36.72283
G1 X2.606 Y-4.126 E36.75648
G1 X-4.126 Y2.606 E37.28302
G1 X-4.126 Y1.997 E37.31667
G1 X1.997 Y-4.126 E37.79563
G1 X1.389 Y-4.126 E37.82928
G1 X-4.126 Y1.389 E38.26065
G1 X-4.126 Y0.780 E38.29430
G1 X0.780 Y-4.126 E38.67809
G1 X0.172 Y-4.126 E38.71174
G1 X-4.126 Y0.172 E39.04795
G1 X-4.126 Y-0.436 E39.08160
G1 X-0.436 Y-4.126 E39.37023
G1 X-1.045 Y-4.126 E39.40387
G1 X-4.126 Y-1.045 E39.64492
G1 X-4.126 Y-1.653 E39.67856
G1 X-1.653 Y-4.126 E39.87202
G1 X-2.261 Y-4.126 E39.90567
G1 X-4.126 Y-2.261 E40.05155
G1 X-4.126 Y-2.870 E40.08520
G1 X-2.870 Y-4.126 E40.18349
G1 X-3.478 Y-4.126 E40.21714
G1 X-4.126 Y-3.478 E40.26785
G1 X-4.126 Y-4.086 E40.30150
G1 X-4.086 Y-4.126 E40.30462
M73 P6
G1 F1800.000 E36.30462
G1 Z2.040 F6000.000
G1 X4.400 Y-4.400 F6000.000
G1 Z1.040 F6000.000
G1 E40.30462 F1800.000
G1 X4.400 Y4.400 E40.77293 F600.000
G1 X-4.400 Y4.400 E41.24123
G1 X-4.400 Y-4.400 E41.70953
G1 X4.340 Y-4.400 E42.17464
G1 X4.800 Y-4.800 F6000.000
G1 X4.800 Y4.800 E42.68552 F600.000
G1 X-4.800 Y4.800 E43.19639
G1 X-4.800 Y-4.800 E43.70727
G1 X4.740 Y-4.800 E44.21495
G1 X4.600 Y-4.454 F6000.000
G1 X4.086 Y-4.126 F6000.000
G1 X4.126 Y-4.086 E44.21808 F618.570
G1 X4.126 Y-3.478 E44.25173
G1 X3.478 Y-4.126 E44.30244
G1 X2.870 Y-4.126 E44.33608
G1 X4.126 Y-2.870 E44.43438
G1 X4.126 Y-2.261 E44.46803
G1 X2.261 Y-4.126 E44.61390
G1 X1.653 Y-4.126 E44.64755
G1 X4.126 Y-1.653 E44.84101
G1 X4.126 Y-1.045 E44.87466
G1 X1.045 Y-4.126 E45.11570
G1 X0.436 Y-4.126 E45.14935
G1 X4.126 Y-0.436 E45.43798
G1 X4.126 Y0.172 E45.47162
G1 X-0.172 Y-4.126 E45.80784
G1 X-0.780 Y-4.126 E45.84148
G1 X4.126 Y0.780 E46.22528
G1 X4.126 Y1.389 E46.25892
G1 X-1.389 Y-4.126 E46.69030
G1 X-1.997 Y-4.126 E46.72395
G1 X4.126 Y1.997 E47.20291
G1 X4.126 Y2.606 E47.23655
G1 X-2.606 Y-4.126 E47.76310
G1 X-3.214 Y-4.126 E47.79674
G1 X4.126 Y3.214 E48.37087
G1 X4.126 Y3.822 E48.40452
G1 X-3.822 Y-4.126 E49.02623
G1 X-4.126 Y-3.822 E49.05002
G1 X3.822 Y4.126 E49.67173
G1 X3.214 Y4.126 E49.70538
G1 X-4.126 Y-3.214 E50.27950
G1 X-4.126 Y-2.606 E50.31315
G1 X2.606 Y4.126 E50.83969
G1 X1.997 Y4.126 E50.87334
G1 X-4.126 Y-1.997 E51.35230
G1 X-4.126 Y-1.389 E51.38595
G1 X1.389 Y4.126 E51.81733
G1 X0.780 Y4.126 E51.85097
G1 X-4.126 Y-0.780 E52.23477
G1 X-4.126 Y-0.172 E52.26841
G1 X0.172 Y4.126 E52.60462
G1 X-0.436 Y4.126 E52.63827
G1 X-4.126 Y0.436 E52.92690
G1 X-4.126 Y1.045 E52.96054
G1 X-1.045 Y4.126 E53.20159
G1 X-1.653 Y4.126 E53.23524
G1 X-4.126 Y1.653 E53.42870
G1 X-4.126 Y2.261 E53.46234
G1 X-2.261 Y4.126 E53.60822
G1 X-2.870 Y4.126 E53.64187
G1 X-4.126 Y2.870 E53.74016
G1 X-4.126 Y3.478 E53.77381
G1 X-3.478 Y4.126 E53.82452
G1 X-4.086 Y4.126 E53.85817
G1 X-4.126 Y4.086 E53.86130
M73 P9
G1 F1800.000 E49.86130
G1 Z2.360 F6000.000
G1 X4.400 Y-4.400 F6000.000
G1 Z1.360 F6000.000
G1 E53.86130 F1800.000
G1 X4.400 Y4.400 E54.32960 F600.000
G1 X-4.400 Y4.400 E54.79790
G1 X-4.400 Y-4.400 E55.26620
G1 X4.340 Y-4.400 E55.73131
G1 X4.800 Y-4.800 F6000.000
G1 X4.800 Y4.800 E56.24219 F600.000
G1 X-4.800 Y4.800 E56.75307
G1 X-4.800 Y-4.800 E57.26394
G1 X4.740 Y-4.800 E57.77162
G1 X4.600 Y-4.454 F6000.000
G1 X4.106 Y-3.343 F6000.000
G1 X3.611 Y-2.847 E57.81038 F600.000
G1 X2.915 Y-3.033 E57.85021
G1 X1.897 Y-2.015 E57.92985
G1 X2.084 Y-1.320 E57.96967
G1 X1.065 Y-0.301 E58.04931
G1 X0.370 Y-0.488 E58.08914
G1 X-0.649 Y0.531 E58.16878
G1 X-0.462 Y1.226 E58.20860
G1 X-1.480 Y2.244 E58.28825
G1 X-2.176 Y2.058 E58.32807
G1 X-3.194 Y3.076 E58.40771
G1 X-3.008 Y3.772 E58.44753
G1 X-3.343 Y4.106 E58.47372
G1 X-2.755 Y4.106 E58.50623
G1 X-2.714 Y4.066 E58.50943
G1 X-2.561 Y4.106 E58.51815
G1 X-1.873 Y4.106 E58.55624
G1 X-1.000 Y3.234 E58.62450
G1 X-1.186 Y2.538 E58.66432
G1 X-0.168 Y1.520 E58.74396
G1 X0.527 Y1.706 E58.78379
G1 X1.546 Y0.688 E58.86343
G1 X1.359 Y-0.007 E58.90325
G1 X2.377 Y-1.026 E58.98289
G1 X3.073 Y-0.839 E59.02272
G1 X4.091 Y-1.858 E59.10236
G1 X3.905 Y-2.553 E59.14218
G1 X4.106 Y-2.755 E59.15795
G1 X4.106 Y-1.285 E59.23924
G1 X3.367 Y-0.545 E59.29708
G1 X3.553 Y0.150 E59.33690
G1 X2.535 Y1.168 E59.41655
G1 X1.839 Y0.982 E59.45637
G1 X0.821 Y2.000 E59.53601
G1 X1.008 Y2.696 E59.57583
G1 X-0.011 Y3.714 E59.65548
G1 X-0.706 Y3.528 E59.69530
G1 X-1.285 Y4.106 E59.74057
G1 X0.310 Y4.106 E59.82876
G1 X0.283 Y4.008 E59.83440
G1 X1.302 Y2.990 E59.91405
G1 X1.997 Y3.176 E59.95387
G1 X3.015 Y2.158 E60.03351
G1 X2.829 Y1.462 E60.07333
G1 X3.847 Y0.444 E60.15298
G1 X4.106 Y0.513 E60.16782
G1 X4.106 Y2.536 E60.27970
G1 X4.005 Y2.638 E60.28766
G1 X3.309 Y2.452 E60.32748
G1 X2.291 Y3.470 E60.40712
G1 X2.462 Y4.106 E60.44356
G1 X4.006 Y4.106 E60.52899
G1 X4.106 Y4.006 E60.53684
G1 X-4.106 Y2.617 F6000.000
G1 X-3.488 Y2.782 E60.57224 F600.000
G1 X-2.470 Y1.764 E60.65189
G1 X-2.656 Y1.068 E60.69171
G1 X-1.638 Y0.050 E60.77135
G1 X-0.942 Y0.237 E60.81117
G1 X0.076 Y-0.782 E60.89082
G1 X-0.111 Y-1.477 E60.93064
G1 X0.908 Y-2.495 E61.01028
G1 X1.603 Y-2.309 E61.05011
G1 X2.621 Y-3.327 E61.12975
G1 X2.435 Y-4.023 E61.16957
G1 X2.519 Y-4.106 E61.17611
G1 X1.049 Y-4.106 E61.25740
G1 X0.427 Y-3.485 E61.30601
G1 X0.614 Y-2.789 E61.34583
G1 X-0.405 Y-1.771 E61.42548
G1 X-1.100 Y-1.958 E61.46530
G1 X-2.118 Y-0.939 E61.54494
G1 X-1.932 Y-0.244 E61.58476
G1 X-2.950 Y0.775 E61.66441
G1 X-3.646 Y0.588 E61.70423
G1 X-4.106 Y1.049 E61.74027
G1 X-4.106 Y0.461 E61.77278
G1 X-3.940 Y0.294 E61.78583
G1 X-4.106 Y-0.328 E61.82149
G1 X-4.106 Y-0.421 E61.82659
G1 X-3.108 Y-1.420 E61.90471
G1 X-2.412 Y-1.233 E61.94453
G1 X-1.394 Y-2.251 E62.02418
G1 X-1.580 Y-2.947 E62.06400
G1 X-0.562 Y-3.965 E62.14364
G1 X0.133 Y-3.779 E62.18346
G1 X0.461 Y-4.106 E62.20909
G1 X-1.009 Y-4.106 E62.29037
G1 X-1.874 Y-3.241 E62.35807
G1 X-2.570 Y-3.427 E62.39790
G1 X-3.588 Y-2.409 E62.47754
G1 X-3.402 Y-1.713 E62.51736
G1 X-4.106 Y-1.009 E62.57249
G1 X-4.106 Y-2.763 E62.66952
G1 X-3.882 Y-2.703 E62.68237
G1 X-2.864 Y-3.721 E62.76202
G1 X-2.967 Y-4.106 E62.78408
M73 P13
G1 F1800.000 E58.78408
G1 Z2.680 F6000.000
G1 X4.400 Y-4.400 F6000.000
G1 Z1.680 F6000.000
G1 E62.78408 F1800.000
G1 X4.400 Y4.400 E63.25238 F600.000
G1 X-4.400 Y4.400 E63.72068
G1 X-4.400 Y-4.400 E64.18898
G1 X4.340 Y-4.400 E64.65409
G1 X4.800 Y-4.800 F6000.000
G1 X4.800 Y4.800 E65.16497 F600.000
G1 X-4.800 Y4.800 E65.67584
G1 X-4.800 Y-4.800 E66.18672
G1 X4.740 Y-4.800 E66.69440
G1 X4.600 Y-4.454 F6000.000
G1 X4.106 Y-3.049 F6000.000
G1 X4.012 Y-2.955 E66.70176 F600.000
G1 X4.106 Y-2.604 E66.72185
G1 X4.106 Y0.513 F6000.000
G1 X3.847 Y0.444 E66.73669 F600.000
G1 X3.474 Y-0.947 E66.81634
G1 X3.984 Y-1.456 E66.85616
G1 X3.611 Y-2.847 E66.93580
G1 X2.915 Y-3.033 E66.97562
G1 X2.628 Y-4.106 E67.03706
G1 X2.198 Y-4.106 E67.06087
G1 X2.514 Y-2.926 E67.12847
G1 X2.005 Y-2.417 E67.16829
G1 X2.377 Y-1.026 E67.24793
G1 X3.073 Y-0.839 E67.28775
G1 X3.446 Y0.552 E67.36740
G1 X2.937 Y1.061 E67.40722
G1 X3.309 Y2.452 E67.48686
G1 X4.005 Y2.638 E67.52668
G1 X4.106 Y3.018 E67.54843
G1 X2.677 Y4.106 E67.64781
G1 X2.399 Y3.068 E67.70725
G1 X2.908 Y2.559 E67.74707
G1 X2.535 Y1.168 E67.82671
G1 X1.839 Y0.982 E67.86653
G1 X1.467 Y-0.409 E67.94618
G1 X1.976 Y-0.918 E67.98600
G1 X1.603 Y-2.309 E68.06564
G1 X0.908 Y-2.495 E68.10546
G1 X0.535 Y-3.886 E68.18511
G1 X0.755 Y-4.106 E68.20232
G1 X-0.600 Y-4.106 E68.27725
G1 X-0.562 Y-3.965 E68.28534
G1 X0.133 Y-3.779 E68.32516
G1 X0.506 Y-2.388 E68.40481
G1 X-0.003 Y-1.879 E68.44463
G1 X0.370 Y-0.488 E68.52427
G1 X1.065 Y-0.301 E68.56409
G1 X1.438 Y1.090 E68.64374
G1 X0.929 Y1.599 E68.68356
G1 X1.302 Y2.990 E68.76320
G1 X1.997 Y3.176 E68.80302
G1 X2.246 Y4.106 E68.85630
G1 X0.525 Y4.106 E68.95151
G1 X0.391 Y3.606 E68.98014
G1 X0.900 Y3.097 E69.01996
G1 X0.527 Y1.706 E69.09960
G1 X-0.168 Y1.520 E69.13942
G1 X-0.541 Y0.129 E69.21907
G1 X-0.032 Y-0.380 E69.25889
G1 X-0.405 Y-1.771 E69.33853
G1 X-1.100 Y-1.958 E69.37835
G1 X-1.473 Y-3.348 E69.45800
G1 X-0.964 Y-3.858 E69.49782
G1 X-1.030 Y-4.106 E69.51207
G1 X-2.752 Y-4.106 E69.60728
G1 X-2.570 Y-3.427 E69.64617
G1 X-1.874 Y-3.241 E69.68599
G1 X-1.502 Y-1.850 E69.76563
G1 X-2.011 Y-1.341 E69.80545
G1 X-1.638 Y0.050 E69.88510
G1 X-0.942 Y0.237 E69.92492
G1 X-0.570 Y1.628 E70.00456
G1 X-1.079 Y2.137 E70.04438
G1 X-0.706 Y3.528 E70.12403
G1 X-0.011 Y3.714 E70.16385
G1 X0.094 Y4.106 E70.18632
G1 X-1.579 Y4.106 E70.27887
G1 X-1.108 Y3.635 E70.31573
G1 X-1.480 Y2.244 E70.39537
G1 X-2.176 Y2.058 E70.43519
G1 X-2.549 Y0.667 E70.51483
G1 X-2.040 Y0.158 E70.55466
G1 X-2.412 Y-1.233 E70.63430
G1 X-3.108 Y-1.420 E70.67412
G1 X-3.480 Y-2.811 E70.75376
G1 X-2.971 Y-3.320 E70.79359
G1 X-3.182 Y-4.106 E70.83864
G1 X-4.106 Y-2.763 E70.92882
G1 X-3.882 Y-2.703 E70.94168
G1 X-3.509 Y-1.312 E71.02132
G1 X-4.018 Y-0.803 E71.06114
G1 X-3.646 Y0.588 E71.14079
G1 X-2.950 Y0.775 E71.18061
G1 X-2.577 Y2.166 E71.26025
G1 X-3.087 Y2.675 E71.30007
G1 X-2.714 Y4.066 E71.37972
G1 X-2.561 Y4.106 E71.38845
G1 X-3.133 Y4.106 E71.42007
G1 X-3.488 Y2.782 E71.49589
G1 X-4.106 Y2.617 E71.53130
G1 X-4.106 Y0.755 F6000.000
G1 X-4.047 Y0.696 E71.53593 F600.000
G1 X-4.106 Y0.475 E71.54859
M73 P16
G1 F1800.000 E67.54859
G1 Z3.000 F6000.000
G1 X4.400 Y-4.400 F6000.000
G1 Z2.000 F6000.000
G1 E71.54859 F1800.000
G1 X4.400 Y4.400 E72.01690 F600.000
G1 X-4.400 Y4.400 E72.48520
G1 X-4.400 Y-4.400 E72.95350
G1 X4.340 Y-4.400 E73.41861
G1 X4.800 Y-4.800 F6000.000
G1 X4.800 Y4.800 E73.92949 F600.000
G1 X-4.800 Y4.800 E74.44036
G1 X-4.800 Y-4.800 E74.95124
G1 X4.740 Y-4.800 E75.45892
G1 X4.600 Y-4.454 F6000.000
G1 X4.106 Y-3.049 F6000.000
G1 X4.012 Y-2.955 E75.46627 F600.000
G1 X2.621 Y-3.327 E75.54592
G1 X2.435 Y-4.023 E75.58574
G1 X2.123 Y-4.106 E75.60361
G1 X0.755 Y-4.106 E75.67927
G1 X0.535 Y-3.886 E75.69648
G1 X-0.286 Y-4.106 E75.74349
G1 X-2.967 Y-4.106 F6000.000
G1 X-2.864 Y-3.721 E75.76555 F600.000
G1 X-1.473 Y-3.348 E75.84520
G1 X-0.964 Y-3.858 E75.88502
G1 X0.427 Y-3.485 E75.96466
G1 X0.614 Y-2.789 E76.00449
G1 X2.005 Y-2.417 E76.08413
G1 X2.514 Y-2.926 E76.12395
G1 X3.905 Y-2.553 E76.20359
G1 X4.091 Y-1.858 E76.24342
G1 X4.106 Y-1.854 E76.24429
G1 X4.106 Y-1.423 E76.26809
G1 X3.984 Y-1.456 E76.27513
G1 X3.474 Y-0.947 E76.31495
G1 X2.084 Y-1.320 E76.39459
G1 X1.897 Y-2.015 E76.43441
G1 X0.506 Y-2.388 E76.51406
G1 X-0.003 Y-1.879 E76.55388
G1 X-1.394 Y-2.251 E76.63352
G1 X-1.580 Y-2.947 E76.67334
G1 X-2.971 Y-3.320 E76.75299
G1 X-3.480 Y-2.811 E76.79281
G1 X-4.106 Y-2.978 E76.82865
G1 X-4.106 Y-2.548 E76.85246
G1 X-3.588 Y-2.409 E76.88214
G1 X-3.402 Y-1.713 E76.92196
G1 X-2.011 Y-1.341 E77.00161
G1 X-1.502 Y-1.850 E77.04143
G1 X-0.111 Y-1.477 E77.12107
G1 X0.076 Y-0.782 E77.16089
G1 X1.467 Y-0.409 E77.24054
G1 X1.976 Y-0.918 E77.28036
G1 X3.367 Y-0.545 E77.36000
G1 X3.553 Y0.150 E77.39982
G1 X4.106 Y0.298 E77.43150
G1 X4.106 Y0.729 E77.45530
G1 X3.446 Y0.552 E77.49314
G1 X2.937 Y1.061 E77.53296
G1 X1.546 Y0.688 E77.61260
G1 X1.359 Y-0.007 E77.65243
G1 X-0.032 Y-0.380 E77.73207
G1 X-0.541 Y0.129 E77.77189
G1 X-1.932 Y-0.244 E77.85153
G1 X-2.118 Y-0.939 E77.89136
G1 X-3.509 Y-1.312 E77.97100
G1 X-4.018 Y-0.803 E78.01082
G1 X-4.106 Y-0.826 E78.01587
G1 X-4.106 Y-0.328 E78.04341
G1 X-3.940 Y0.294 E78.07906
G1 X-2.549 Y0.667 E78.15870
G1 X-2.040 Y0.158 E78.19852
G1 X-0.649 Y0.531 E78.27817
G1 X-0.462 Y1.226 E78.31799
G1 X0.929 Y1.599 E78.39763
G1 X1.438 Y1.090 E78.43745
G1 X2.829 Y1.462 E78.51710
G1 X3.015 Y2.158 E78.55692
G1 X4.106 Y2.450 E78.61940
G1 X4.106 Y2.881 E78.64320
G1 X2.908 Y2.559 E78.71184
G1 X2.399 Y3.068 E78.75166
G1 X1.008 Y2.696 E78.83130
G1 X0.821 Y2.000 E78.87112
G1 X-0.570 Y1.628 E78.95077
G1 X-1.079 Y2.137 E78.99059
G1 X-2.470 Y1.764 E79.07023
G1 X-2.656 Y1.068 E79.11006
G1 X-4.047 Y0.696 E79.18970
G1 X-4.106 Y0.755 E79.19433
G1 X-4.106 Y2.401 E79.28539
G1 X-3.087 Y2.675 E79.34378
G1 X-2.577 Y2.166 E79.38360
G1 X-1.186 Y2.538 E79.46325
G1 X-1.000 Y3.234 E79.50307
G1 X0.391 Y3.606 E79.58271
G1 X0.900 Y3.097 E79.62253
G1 X2.291 Y3.470 E79.70218
G1 X2.462 Y4.106 E79.73862
G1 X0.310 Y4.106 F6000.000
G1 X0.283 Y4.008 E79.74426 F600.000
G1 X-1.108 Y3.635 E79.82390
G1 X-1.579 Y4.106 E79.86076
G1 X-1.758 Y4.106 E79.87068
G1 X-3.008 Y3.772 E79.94222
G1 X-3.194 Y3.076 E79.98204
G1 X-4.106 Y2.832 E80.03428
M73 P19
G1 F1800.000 E76.03428
G1 Z3.320 F6000.000
G1 X4.400 Y-4.400 F6000.000
