; generated by Slic3r 1.1.7 on 2015-03-27 at 00:11:15

; perimeters extrusion width = 0.40mm
; infill extrusion width = 0.42mm
; solid infill extrusion width = 0.42mm
; top infill extrusion width = 0.42mm

G21 ; set units to millimeters
M107
M190 S40 ; wait for bed temperature to be reached
M104 S210 ; set temperature
G28 ; home all axes
G1 Z15 F5000 ; move Z to 15mm height
M280 P0 S5 ; deploy servo
G29 ; perform auto level routine
M280 P0 S120 ; retract servo
G1 X0 Y0 Z5 F5000 ; Move to center
M109 S210 ; wait for temperature to be reached
G90 ; use absolute coordinates
G92 E0
M82 ; use absolute distances for extrusion
G1 F1800.000 E-4.00000
G1 Z1.350 F6000.000
G92 E0
G1 X24.136 Y0.000 F6000.000
G1 Z0.350 F6000.000
G1 E4.00000 F1800.000
G1 X24.136 Y20.000 E5.84982 F1080.000
G1 X23.739 Y22.261 E6.06212
G1 X22.595 Y24.251 E6.27441
G1 X20.842 Y25.733 E6.48671
G1 X18.689 Y26.528 E6.69900
G1 X17.500 Y26.636 E6.80943
G1 X-17.500 Y26.636 E10.04661
G1 X-19.761 Y26.239 E10.25891
G1 X-21.751 Y25.095 E10.47121
G1 X-23.233 Y23.342 E10.68350
G1 X-24.028 Y21.189 E10.89580
G1 X-24.136 Y20.000 E11.00622
G1 X-24.136 Y-20.000 E14.70586
G1 X-23.739 Y-22.261 E14.91816
G1 X-22.595 Y-24.251 E15.13046
G1 X-20.842 Y-25.733 E15.34275
G1 X-18.689 Y-26.528 E15.55505
G1 X-17.500 Y-26.636 E15.66547
G1 X17.500 Y-26.636 E18.90266
G1 X19.761 Y-26.239 E19.11495
G1 X21.751 Y-25.095 E19.32725 F1080.000
G1 X23.233 Y-23.342 E19.53955
G1 X24.028 Y-21.189 E19.75184
G1 X24.136 Y-20.000 E19.86227
G1 X24.136 Y-0.060 E21.70654
G1 F1800.000 E17.70654
G1 Z1.350 F6000.000
G92 E0
G1 X11.886 Y-18.486 F6000.000
G1 Z0.350 F6000.000
G1 E4.00000 F1800.000
G1 X11.886 Y-12.514 E4.55229 F720.000
G1 X-13.086 Y-12.514 E6.86190
G1 X-13.086 Y-18.486 E7.41418
G1 X11.826 Y-18.486 E9.71825
G1 X11.250 Y-17.850 F6000.000
G1 X11.250 Y-13.150 E10.15296 F504.000
G1 X-12.450 Y-13.150 E12.34499
G1 X-12.450 Y-17.850 E12.77970
G1 X11.190 Y-17.850 E14.96618
G1 X11.650 Y-17.850 F6000.000
G1 F1800.000 E10.96618
G1 Z1.350 F6000.000
G92 E0
G1 X8.514 Y-5.986 F6000.000
G1 Z0.350 F6000.000
G1 E4.00000 F1800.000
G1 X14.486 Y-5.986 E4.55229 F720.000
G1 X14.486 Y2.986 E5.38204
G1 X8.514 Y2.986 E5.93433
G1 X8.514 Y-5.926 E6.75854
G1 X9.150 Y-5.350 F6000.000
G1 X13.850 Y-5.350 E7.19325 F504.000
G1 X13.850 Y2.350 E7.90543
G1 X9.150 Y2.350 E8.34013
G1 X9.150 Y-5.290 E9.04676
G1 X9.150 Y-5.750 F6000.000
G1 X-9.014 Y-0.586 F6000.000
G1 X-9.014 Y11.186 E10.13550 F720.000
G1 X-14.986 Y11.186 E10.68778
G1 X-14.986 Y-0.586 E11.77652
G1 X-9.074 Y-0.586 E12.32325
G1 X-9.650 Y0.050 F6000.000
G1 X-9.650 Y10.550 E13.29441 F504.000
G1 X-14.350 Y10.550 E13.72911
G1 X-14.350 Y0.050 E14.70027
G1 X-9.710 Y0.050 E15.12943
G1 X-9.250 Y0.050 F6000.000
G1 F1800.000 E11.12943
G1 Z1.350 F6000.000
G92 E0
G1 X-16.514 Y19.014 F6000.000
G1 Z0.350 F6000.000
G1 E4.00000 F1800.000
G1 X-16.514 Y-19.014 E7.51732 F720.000
G1 X16.514 Y-19.014 E10.57218
G1 X16.514 Y19.014 E14.08949
G1 X-16.454 Y19.014 E17.13881
G1 X-17.150 Y19.650 F6000.000
G1 X-17.150 Y-19.650 E20.77370 F504.000
G1 X17.150 Y-19.650 E23.94614
G1 X17.150 Y19.650 E27.58103
G1 X-17.090 Y19.650 E30.74792
G1 X-16.950 Y19.304 F6000.000
G1 X-16.034 Y18.574 F6000.000
G1 X-16.074 Y18.534 E30.75316 F1080.000
G1 X-16.074 Y17.623 E30.83739
G1 X-15.123 Y18.574 E30.96174
G1 X-14.212 Y18.574 E31.04598
G1 X-16.074 Y16.712 E31.28946
G1 X-16.074 Y15.801 E31.37369
G1 X-13.301 Y18.574 E31.73629
G1 X-12.391 Y18.574 E31.82052
G1 X-16.074 Y14.891 E32.30225
G1 X-16.074 Y13.980 E32.38648
G1 X-11.480 Y18.574 E32.98733
G1 X-10.569 Y18.574 E33.07156
G1 X-16.074 Y13.069 E33.79153
G1 X-16.074 Y12.159 E33.87577
G1 X-9.659 Y18.574 E34.71486
G1 X-8.748 Y18.574 E34.79909
G1 X-15.377 Y11.944 E35.66623
G1 X-14.784 Y11.627 E35.72845
G1 X-7.837 Y18.574 E36.63714
G1 X-6.926 Y18.574 E36.72137
G1 X-13.874 Y11.626 E37.63007
G1 X-12.963 Y11.626 E37.71431
G1 X-6.016 Y18.574 E38.62301
G1 X-5.105 Y18.574 E38.70724
G1 X-12.052 Y11.626 E39.61594
G1 X-11.141 Y11.626 E39.70017
G1 X-4.194 Y18.574 E40.60888
G1 X-3.284 Y18.574 E40.69311
G1 X-10.231 Y11.626 E41.60181
G1 X-9.320 Y11.626 E41.68604
G1 X-2.373 Y18.574 E42.59474
G1 X-1.462 Y18.574 E42.67898
G1 X-8.574 Y11.462 E43.60917
G1 X-8.574 Y10.551 E43.69340
G1 X-0.551 Y18.574 E44.74271
G1 X0.359 Y18.574 E44.82694
G1 X-8.574 Y9.641 E45.99538
G1 X-8.574 Y8.730 E46.07961
G1 X1.270 Y18.574 E47.36717
G1 X2.181 Y18.574 E47.45141
G1 X-8.574 Y7.819 E48.85809
G1 X-8.574 Y6.909 E48.94232
G1 X3.091 Y18.574 E50.46813
G1 X4.002 Y18.574 E50.55236
G1 X-8.574 Y5.998 E52.19729
G1 X-8.574 Y5.087 E52.28152
G1 X4.913 Y18.574 E54.04557
G1 X5.824 Y18.574 E54.12981
G1 X-8.574 Y4.176 E56.01298
G1 X-8.574 Y3.266 E56.09721
G1 X6.734 Y18.574 E58.09951
G1 X7.645 Y18.574 E58.18374
G1 X-8.574 Y2.355 E60.30517
G1 X-8.574 Y1.444 E60.38940
G1 X8.556 Y18.574 E62.62994
G1 X9.466 Y18.574 E62.71418
G1 X-8.574 Y0.534 E65.07385
G1 X-8.574 Y-0.377 E65.15808
G1 X10.377 Y18.574 E67.63687
G1 X11.288 Y18.574 E67.72110
G1 X-16.074 Y-8.788 E71.30003
G1 X-16.074 Y-9.699 E71.38427
G1 X12.199 Y18.574 E75.08232
G1 X13.109 Y18.574 E75.16655
G1 X-16.074 Y-10.609 E78.98373
G1 X-16.074 Y-11.520 E79.06796
G1 X14.020 Y18.574 E83.00426
G1 X14.931 Y18.574 E83.08849
G1 X-16.074 Y-12.431 E87.14391
G1 X-16.074 Y-13.341 E87.22815
G1 X15.841 Y18.574 E91.40269
G1 X16.074 Y17.895 E91.46903
G1 X-16.074 Y-14.252 E95.67394
G1 X-14.020 Y-18.574 F6000.000
G1 X-13.526 Y-18.080 E95.73850 F1080.000
G1 X-13.526 Y-17.169 E95.82273
G1 X-14.931 Y-18.574 E96.00641
G1 X-15.841 Y-18.574 E96.09065
G1 X-13.526 Y-16.259 E96.39346
G1 X-13.526 Y-15.348 E96.47769
G1 X-16.074 Y-17.895 E96.81086
G1 X-16.074 Y-16.984 E96.89509
G1 X-13.526 Y-14.437 E97.22827
G1 X-13.526 Y-13.526 E97.31250
G1 X-16.074 Y-16.074 E97.64567
G1 X-16.074 Y-15.163 E97.72990
G1 X16.074 Y16.984 E101.93482
G1 X16.074 Y16.074 E102.01905
G1 X-12.074 Y-12.074 E105.70075
G1 X-11.163 Y-12.074 E105.78498
G1 X16.074 Y15.163 E109.34756
G1 X16.074 Y14.252 E109.43180
G1 X-10.252 Y-12.074 E112.87525
G1 X-9.341 Y-12.074 E112.95948
G1 X16.074 Y13.341 E116.28382
G1 X16.074 Y12.431 E116.36805
G1 X-8.431 Y-12.074 E119.57326
G1 X-7.520 Y-12.074 E119.65749
G1 X16.074 Y11.520 E122.74358
G1 X8.891 Y3.426 F6000.000
G1 X16.074 Y10.609 E123.68311 F1080.000
G1 X16.074 Y9.699 E123.76735
G1 X9.801 Y3.426 E124.58776
G1 X10.712 Y3.426 E124.67199
G1 X16.074 Y8.788 E125.37328
G1 X16.074 Y7.877 E125.45751
G1 X11.623 Y3.426 E126.03967
G1 X12.534 Y3.426 E126.12390
G1 X16.074 Y6.966 E126.58694
G1 X16.074 Y6.056 E126.67118
G1 X13.444 Y3.426 E127.01509
G1 X14.355 Y3.426 E127.09933
G1 X16.074 Y5.145 E127.32412
G1 X16.074 Y4.234 E127.40835
G1 X14.926 Y3.087 E127.55840
G1 X14.926 Y2.176 E127.64264
G1 X16.074 Y3.324 E127.79269
G1 X16.074 Y2.413 E127.87692
G1 X14.926 Y1.266 E128.02697
G1 X14.926 Y0.355 E128.11120
G1 X16.074 Y1.502 E128.26125
G1 X16.074 Y0.591 E128.34548
G1 X14.926 Y-0.556 E128.49553
G1 X14.926 Y-1.466 E128.57977
G1 X16.074 Y-0.319 E128.72982
G1 X16.074 Y-1.230 E128.81405
G1 X14.926 Y-2.377 E128.96410
G1 X14.926 Y-3.288 E129.04833
G1 X16.074 Y-2.141 E129.19838
G1 X16.074 Y-3.051 E129.28262
G1 X14.926 Y-4.199 E129.43267
G1 X14.926 Y-5.109 E129.51690
G1 X16.074 Y-3.962 E129.66695
G1 F1800.000 E125.66695
G1 Z1.350 F6000.000
G92 E0
G1 X8.074 Y2.609 F6000.000
G1 Z0.350 F6000.000
G1 E4.00000 F1800.000
G1 X-6.609 Y-12.074 E5.92055 F1080.000
G1 X-5.699 Y-12.074 E6.00478
G1 X8.074 Y1.699 E7.80620
G1 X8.074 Y0.788 E7.89044
G1 X-4.788 Y-12.074 E9.57274
G1 X-3.877 Y-12.074 E9.65697
G1 X8.074 Y-0.123 E11.22015
G1 X8.074 Y-1.034 E11.30438
G1 X-2.966 Y-12.074 E12.74844
G1 X-2.056 Y-12.074 E12.83267
G1 X8.074 Y-1.944 E14.15760
G1 X8.074 Y-2.855 E14.24183
G1 X-1.145 Y-12.074 E15.44764
G1 X-0.234 Y-12.074 E15.53188
G1 X8.074 Y-3.766 E16.61856
G1 X8.074 Y-4.676 E16.70279
G1 X0.676 Y-12.074 E17.67036
G1 X1.587 Y-12.074 E17.75459
G1 X8.074 Y-5.587 E18.60303
G1 X8.145 Y-6.426 E18.68093
G1 X2.498 Y-12.074 E19.41959
G1 X3.409 Y-12.074 E19.50383
G1 X9.056 Y-6.426 E20.24248
G1 X9.966 Y-6.426 E20.32672
G1 X4.319 Y-12.074 E21.06538
G1 X5.230 Y-12.074 E21.14961
G1 X10.877 Y-6.426 E21.88827
G1 X11.788 Y-6.426 E21.97250
G1 X6.141 Y-12.074 E22.71116
G1 X7.051 Y-12.074 E22.79539
G1 X12.699 Y-6.426 E23.53405
G1 X13.609 Y-6.426 E23.61828
G1 X7.962 Y-12.074 E24.35694
G1 X8.873 Y-12.074 E24.44118
G1 X16.074 Y-4.873 E25.38304
G1 X16.074 Y-5.784 E25.46728
G1 X9.784 Y-12.074 E26.29002
G1 X10.694 Y-12.074 E26.37425
G1 X16.074 Y-6.694 E27.07788
G1 X16.074 Y-7.605 E27.16211
G1 X11.605 Y-12.074 E27.74661
G1 X12.326 Y-12.263 E27.81559
G1 X16.074 Y-8.516 E28.30573
G1 X16.074 Y-9.426 E28.38996
G1 X12.326 Y-13.174 E28.88009
G1 X12.326 Y-14.084 E28.96433
G1 X16.074 Y-10.337 E29.45446
G1 X16.074 Y-11.248 E29.53869
G1 X12.326 Y-14.995 E30.02883
G1 X12.326 Y-15.906 E30.11306
G1 X16.074 Y-12.159 E30.60320
G1 X16.074 Y-13.069 E30.68743
G1 X12.326 Y-16.816 E31.17757
G1 X12.326 Y-17.727 E31.26180
G1 X16.074 Y-13.980 E31.75193
G1 X16.074 Y-14.891 E31.83617
G1 X12.391 Y-18.574 E32.31789
G1 X13.301 Y-18.574 E32.40212
G1 X16.074 Y-15.801 E32.76473
G1 X16.074 Y-16.712 E32.84896
G1 X14.212 Y-18.574 E33.09244
G1 X15.123 Y-18.574 E33.17667
G1 X16.074 Y-17.623 E33.30103
G1 X16.074 Y-18.534 E33.38526
G1 X16.034 Y-18.574 E33.39049
G1 F1800.000 E29.39049
G1 Z1.350 F6000.000
G92 E0
G1 X-16.074 Y-7.877 F6000.000
G1 Z0.350 F6000.000
G1 E4.00000 F1800.000
G1 X-9.223 Y-1.026 E4.89609 F1080.000
G1 X-10.134 Y-1.026 E4.98032
G1 X-16.074 Y-6.966 E5.75729
G1 X-16.074 Y-6.056 E5.84152
G1 X-11.044 Y-1.026 E6.49936
G1 X-11.955 Y-1.026 E6.58359
G1 X-16.074 Y-5.145 E7.12231
G1 X-16.074 Y-4.234 E7.20654
G1 X-12.866 Y-1.026 E7.62614
G1 X-13.776 Y-1.026 E7.71037
G1 X-16.074 Y-3.324 E8.01084
G1 X-15.916 Y-1.344 F6000.000
G1 X-16.074 Y-1.502 E8.03150 F1080.000
G1 X-16.074 Y-2.413 E8.11573
G1 X-14.687 Y-1.026 E8.29708
G1 X-15.750 Y-0.903 F6000.000
G1 X-15.750 Y11.503 E10.05710 F360.000
M106 S98
G1 F1800.000 E6.05710
G1 Z1.670 F6000.000
G92 E0
G1 X-12.700 Y-12.900 F6000.000
G1 Z0.670 F6000.000
G1 E4.00000 F1800.000
G1 X-12.700 Y-18.100 E4.27672 F2400.000
G1 X11.500 Y-18.100 E5.56456
G1 X11.500 Y-12.900 E5.84128
G1 X-12.640 Y-12.900 E7.12592
G1 X-12.300 Y-13.300 F6000.000
G1 X-12.300 Y-17.700 E7.36007 F1680.000
G1 X11.100 Y-17.700 E8.60533
G1 X11.100 Y-13.300 E8.83948
G1 X-12.240 Y-13.300 E10.08155
G1 X-12.700 Y-13.300 F6000.000
G1 X8.900 Y-5.600 F6000.000
G1 X14.100 Y-5.600 E10.35827 F2400.000
G1 X14.100 Y2.600 E10.79465
G1 X8.900 Y2.600 E11.07137
G1 X8.900 Y-5.540 E11.50455
G1 X9.300 Y-5.200 F6000.000
G1 X13.700 Y-5.200 E11.73870 F1680.000
G1 X13.700 Y2.200 E12.13250
G1 X9.300 Y2.200 E12.36665
G1 X9.300 Y-5.140 E12.75726
G1 X9.300 Y-5.600 F6000.000
G1 X-9.400 Y-0.200 F6000.000
G1 X-9.400 Y10.800 E13.34264 F2400.000
G1 X-14.600 Y10.800 E13.61936
G1 X-14.600 Y-0.200 E14.20474
G1 X-9.460 Y-0.200 E14.47827
G1 X-9.800 Y0.200 F6000.000
G1 X-9.800 Y10.400 E15.02108 F1680.000
G1 X-14.200 Y10.400 E15.25523
G1 X-14.200 Y0.200 E15.79804
G1 X-9.860 Y0.200 E16.02899
G1 X-9.400 Y0.200 F6000.000
G1 F1800.000 E12.02899
G1 Z1.670 F6000.000
G92 E0
G1 X-16.900 Y19.400 F6000.000
G1 Z0.670 F6000.000
G1 E4.00000 F1800.000
G1 X-16.900 Y-19.400 E6.06479 F2400.000
G1 X16.900 Y-19.400 E7.86350
G1 X16.900 Y19.400 E9.92829
G1 X-16.840 Y19.400 E11.72380
G1 X-17.300 Y19.800 F6000.000
G1 X-17.300 Y-19.800 E13.83116 F1680.000
G1 X17.300 Y-19.800 E15.67244
G1 X17.300 Y19.800 E17.77981
G1 X-17.240 Y19.800 E19.61789
G1 X-17.100 Y19.454 F6000.000
G1 X-15.880 Y19.126 F6000.000
G1 X8.626 Y-5.380 E21.53465 F3600.000
G1 X8.626 Y-4.790 E21.56729
G1 X-15.290 Y19.126 E23.43787
G1 X-14.699 Y19.126 E23.47052
G1 X8.626 Y-4.199 E25.29493
G1 X8.626 Y-3.609 E25.32758
G1 X-14.109 Y19.126 E27.10582
G1 X-13.519 Y19.126 E27.13847
G1 X8.626 Y-3.019 E28.87054
G1 X8.626 Y-2.428 E28.90319
G1 X-12.928 Y19.126 E30.58909
G1 X-12.338 Y19.126 E30.62174
G1 X8.626 Y-1.838 E32.26147
G1 X8.626 Y-1.248 E32.29412
G1 X-11.748 Y19.126 E33.88768
G1 X-11.157 Y19.126 E33.92033
G1 X8.626 Y-0.657 E35.46772
G1 X8.626 Y-0.067 E35.50037
G1 X-10.567 Y19.126 E37.00159
G1 X-9.977 Y19.126 E37.03424
G1 X8.626 Y0.523 E38.48929
G1 X8.626 Y1.113 E38.52194
G1 X-9.387 Y19.126 E39.93082
G1 X-8.796 Y19.126 E39.96347
G1 X8.626 Y1.704 E41.32618
G1 X8.626 Y2.294 E41.35883
G1 X-8.206 Y19.126 E42.67537
G1 X-7.616 Y19.126 E42.70802
G1 X8.637 Y2.874 E43.97924
G1 X9.228 Y2.874 E44.01188
G1 X-7.025 Y19.126 E45.28310
G1 X-6.435 Y19.126 E45.31575
G1 X9.818 Y2.874 E46.58697
G1 X10.408 Y2.874 E46.61961
G1 X-5.845 Y19.126 E47.89083
G1 X-5.255 Y19.126 E47.92348
G1 X10.998 Y2.874 E49.19470
G1 X11.589 Y2.874 E49.22735
G1 X-4.664 Y19.126 E50.49856
G1 X-4.074 Y19.126 E50.53121
G1 X12.179 Y2.874 E51.80243
G1 X12.769 Y2.874 E51.83508
G1 X-3.484 Y19.126 E53.10629
G1 X-2.893 Y19.126 E53.13894
G1 X13.360 Y2.874 E54.41016
G1 X13.950 Y2.874 E54.44281
G1 X-2.303 Y19.126 E55.71402
G1 X-16.626 Y18.102 F6000.000
G1 X-9.598 Y11.074 E56.26377 F3600.000
G1 X-10.188 Y11.074 E56.29642
G1 X-16.626 Y17.512 E56.80000
G1 X-16.626 Y16.922 E56.83264
G1 X-10.778 Y11.074 E57.29005
G1 X-11.369 Y11.074 E57.32270
G1 X-16.626 Y16.331 E57.73394
G1 X-16.626 Y15.741 E57.76658
G1 X-11.959 Y11.074 E58.13165
G1 X-12.549 Y11.074 E58.16430
G1 X-16.626 Y15.151 E58.48320
G1 X-16.626 Y14.560 E58.51584
G1 X-13.140 Y11.074 E58.78857
G1 X-13.730 Y11.074 E58.82122
G1 X-16.626 Y13.970 E59.04778
G1 X-16.626 Y13.380 E59.08042
G1 X-14.320 Y11.074 E59.26081
G1 X-14.874 Y11.037 E59.29149
G1 X-16.626 Y12.790 E59.42859
G1 X-16.626 Y12.199 E59.46124
G1 X-14.874 Y10.446 E59.59835
G1 X-14.874 Y9.856 E59.63100
G1 X-16.626 Y11.609 E59.76811
G1 X-16.626 Y11.019 E59.80075
G1 X-14.874 Y9.266 E59.93786
G1 X-14.874 Y8.675 E59.97051
G1 X-16.626 Y10.428 E60.10762
G1 X-16.626 Y9.838 E60.14026
G1 X-14.874 Y8.085 E60.27737
G1 X-14.874 Y7.495 E60.31002
G1 X-16.626 Y9.248 E60.44713
G1 X-16.626 Y8.657 E60.47977
G1 X-14.874 Y6.904 E60.61688
G1 X-14.874 Y6.314 E60.64953
G1 X-16.626 Y8.067 E60.78664
G1 X-16.626 Y7.477 E60.81928
G1 X-14.874 Y5.724 E60.95639
G1 X-14.874 Y5.134 E60.98904
G1 X-16.626 Y6.887 E61.12615
G1 X-16.626 Y6.296 E61.15880
G1 X-14.874 Y4.543 E61.29590
G1 X-14.874 Y3.953 E61.32855
G1 X-16.626 Y5.706 E61.46566
G1 X-16.626 Y5.116 E61.49831
G1 X-14.874 Y3.363 E61.63541
G1 X-14.874 Y2.772 E61.66806
G1 X-16.626 Y4.525 E61.80517
G1 X-16.626 Y3.935 E61.83782
G1 X-14.874 Y2.182 E61.97493
G1 X-14.874 Y1.592 E62.00757
G1 X-16.626 Y3.345 E62.14468
G1 X-16.626 Y2.755 E62.17733
G1 X-14.874 Y1.002 E62.31444
G1 X-14.874 Y0.411 E62.34708
G1 X-16.626 Y2.164 E62.48419
G1 X-16.626 Y1.574 E62.51684
G1 X-2.426 Y-12.626 E63.62752
G1 X-1.836 Y-12.626 E63.66016
G1 X-13.989 Y-0.474 E64.61070
G1 X-13.398 Y-0.474 E64.64335
G1 X-1.245 Y-12.626 E65.59389
G1 X-0.655 Y-12.626 E65.62653
G1 X-12.808 Y-0.474 E66.57707
G1 X-12.218 Y-0.474 E66.60972
G1 X-0.065 Y-12.626 E67.56026
G1 X0.525 Y-12.626 E67.59290
G1 X-11.628 Y-0.474 E68.54344
G1 X-11.037 Y-0.474 E68.57609
G1 X1.116 Y-12.626 E69.52663
G1 X1.706 Y-12.626 E69.55928
G1 X-10.447 Y-0.474 E70.50981
G1 X-9.857 Y-0.474 E70.54246
G1 X2.296 Y-12.626 E71.49300
G1 X2.887 Y-12.626 E71.52565
G1 X-9.266 Y-0.474 E72.47619
G1 X-9.126 Y-0.023 E72.50227
G1 X3.477 Y-12.626 E73.48804
G1 X4.067 Y-12.626 E73.52068
G1 X-9.126 Y0.567 E74.55262
G1 X-9.126 Y1.157 E74.58527
G1 X4.657 Y-12.626 E75.66337
G1 X5.248 Y-12.626 E75.69602
G1 X-9.126 Y1.748 E76.82029
G1 X-9.126 Y2.338 E76.85294
G1 X5.838 Y-12.626 E78.02339
G1 X6.428 Y-12.626 E78.05603
G1 X-9.126 Y2.928 E79.27265
G1 X-9.126 Y3.519 E79.30529
G1 X7.019 Y-12.626 E80.56808
G1 X7.609 Y-12.626 E80.60073
G1 X-9.126 Y4.109 E81.90968
G1 X-9.126 Y4.699 E81.94233
G1 X8.199 Y-12.626 E83.29745
G1 X8.790 Y-12.626 E83.33010
G1 X-9.126 Y5.290 E84.73139
G1 X-9.126 Y5.880 E84.76404
G1 X9.380 Y-12.626 E86.21150
G1 X9.970 Y-12.626 E86.24415
G1 X-9.126 Y6.470 E87.73779
G1 X-9.126 Y7.060 E87.77043
G1 X10.560 Y-12.626 E89.31024
G1 X11.151 Y-12.626 E89.34288
G1 X-9.126 Y7.651 E90.92886
G1 X-9.126 Y8.241 E90.96150
G1 X16.626 Y-17.512 E92.97576
G1 X16.626 Y-16.922 E93.00841
G1 X-9.126 Y8.831 E95.02266
G1 X-9.126 Y9.422 E95.05531
G1 X16.626 Y-16.331 E97.06957
G1 X16.626 Y-15.741 E97.10221
